X: 9
T: Ticke Ticke Tack
O: Öland
Z: Transcribed to abc by Jon Magnusson 080404 
R: Schottis
D: [[Grupper/Sågskära]] - Visor från Öland
M: 4/4
L: 1/8
K: G
d/2d/2c/2d/2 ed/2c/2 BG G2|d/2d/2c/2d/2 ed/2c/2 BG Gz/2B/2|BB BA/2B/2 cc cc/2A/2|FF FE/2F/2 GG/2G/2 G2|
|:F3/2G/2 AA F3/2G/2 AA|F3/2A<dc/2 BG GD|BB/2B/2 BA/2B/2 cc cB/2A/2|FF FE/2F/2 GG G2|
d/2d/2c/2d/2 ed/2c/2 BG G2|d/2d/2c/2d/2 ed/2c/2 BG G2|BB/2B/2 BA/2B/2 cc cA/2G/2|FF FE/2F/2 GG G2:|

